public/icons/Menu.svg

<svg xmlns="http://www.w3.org/2000/svg" width="24" height="24" fill="none"><path fill="#0E0940" fill-rule="evenodd" d="M4 6h16v2H4V6Zm0 5h16v2H4v-2Zm16 5H4v2h16v-2Z" clip-rule="evenodd"/></svg>

<svg width="24" height="24" viewBox="0 0 24 24" fill="none" xmlns="http://www.w3.org/2000/svg">
<path fill-rule="evenodd" clip-rule="evenodd" d="M4 6H20V8H4V6ZM4 11H20V13H4V11ZM20 16H4V18H20V16Z" fill="#0E0940"/>
</svg>
